X:315
T:Lilliburlero
R:Jig
M:6/8
L:1/8
Q:100
K:D
DED F2 F | EFE G2 G | FAD G2 F | EDC D3 :||:
d2 c d2 A | AB=c B2 A | ABc dAB | AGF E3 |
BAG FGA | BAG FGA | BdD G2 F |  EDC D3 :||
